data/chains/V2/zkastar/zkastar.branded.svg

<svg width="24" height="24" viewBox="0 0 24 24" fill="none" xmlns="http://www.w3.org/2000/svg">
<path fill-rule="evenodd" clip-rule="evenodd" d="M12 22C13.3132 22 14.6136 21.7413 15.8268 21.2388C17.0401 20.7362 18.1425 19.9996 19.0711 19.0711C19.9997 18.1425 20.7362 17.0401 21.2388 15.8268C21.7413 14.6135 22 13.3132 22 12C22 10.6868 21.7413 9.38637 21.2388 8.17316C20.7362 6.95991 19.9997 5.85752 19.0711 4.92893C18.1425 4.00034 17.0401 3.26375 15.8268 2.7612C14.6136 2.25866 13.3132 2 12 2C9.34779 2 6.80429 3.05357 4.92893 4.92893C3.05357 6.80429 2 9.3478 2 12C2 14.6522 3.05357 17.1957 4.92893 19.0711C6.80429 20.9465 9.34779 22 12 22ZM12 19.745C14.0541 19.745 16.024 18.929 17.4765 17.4765C18.929 16.024 19.745 14.0541 19.745 12C19.745 9.94593 18.929 7.97592 17.4765 6.52347C16.024 5.071 14.0541 4.25501 12 4.25501C9.94592 4.25501 7.97594 5.071 6.52347 6.52347C5.071 7.97592 4.25501 9.94593 4.25501 12C4.25501 14.0541 5.071 16.024 6.52347 17.4765C7.97594 18.929 9.94592 19.745 12 19.745Z" fill="url(#paint0_linear_376_10504)"/>
<path d="M15.431 18.0035C15.8802 18.0035 16.3109 17.8251 16.6286 17.5075C16.9462 17.1899 17.1246 16.7591 17.1246 16.3099C17.1246 15.8607 16.9462 15.43 16.6286 15.1122C16.3109 14.7946 15.8802 14.6162 15.431 14.6162C14.9817 14.6162 14.5509 14.7946 14.2333 15.1122C13.9157 15.43 13.7373 15.8607 13.7373 16.3099C13.7373 16.7591 13.9157 17.1899 14.2333 17.5075C14.5509 17.8251 14.9817 18.0035 15.431 18.0035Z" fill="url(#paint1_linear_376_10504)"/>
<path d="M14.4186 2.38776C16.0477 2.50442 17.9733 3.93868 18.7337 4.64277L19.7027 5.68586C17.9322 4.86099 16.3812 3.94005 14.4186 3.98809C12.4559 4.03612 9.93189 6.02487 10.1268 9.73468C10.3203 13.4432 13.182 15.4566 15.2421 16.1346C16.8904 16.6781 17.0579 15.9315 16.9124 15.4786C17.5767 16.7715 16.6969 18.0506 15.2421 18.1714C14.0782 18.2675 12.5588 17.4193 11.9453 16.9828C10.2956 15.8272 7.17316 12.4838 7.87176 8.35262C8.74467 3.18792 12.3818 2.24227 14.4186 2.38776Z" fill="url(#paint2_linear_376_10504)"/>
<path d="M5.0065 12.1487C4.89508 12.3462 4.8241 12.564 4.79773 12.7894C4.77135 13.0146 4.79009 13.243 4.85287 13.461C4.91564 13.6789 5.02118 13.8822 5.16334 14.059C5.30551 14.2357 5.48145 14.3824 5.68088 14.4905C5.88033 14.5985 6.09929 14.6659 6.32501 14.6884C6.55072 14.7109 6.77866 14.6882 6.99554 14.6218C7.21242 14.5554 7.41389 14.4464 7.58823 14.3012C7.76255 14.1561 7.90623 13.9777 8.01089 13.7765C8.21768 13.3789 8.25996 12.9159 8.12866 12.4874C7.99735 12.059 7.70295 11.6991 7.3089 11.4857C6.91485 11.2721 6.45269 11.222 6.02202 11.3461C5.59136 11.47 5.22664 11.7584 5.0065 12.1487Z" fill="url(#paint3_linear_376_10504)"/>
<path d="M19.2523 18.6987C18.3739 20.0766 16.1889 21.1417 15.2089 21.4752L13.8309 21.8307C15.3983 20.6668 16.952 19.6868 17.8455 17.9369C18.739 16.187 18.1927 13.0234 14.8384 11.4258C11.484 9.82822 8.35195 11.3846 6.77358 12.8738C5.51089 14.0651 6.10106 14.5729 6.56771 14.6608C5.14031 14.6608 4.39642 13.2402 4.98248 11.9034C5.45187 10.8343 6.92181 9.90233 7.59845 9.57019C9.40054 8.67123 13.8282 7.51971 17.1277 10.1013C21.252 13.3295 20.3503 16.9775 19.2523 18.6987Z" fill="url(#paint4_linear_376_10504)"/>
<path d="M15.4343 5.97746C15.3187 5.78523 15.1665 5.61765 14.9861 5.48427C14.8059 5.35089 14.601 5.25432 14.3835 5.20009C14.1658 5.14587 13.9396 5.13502 13.7178 5.16821C13.496 5.20138 13.283 5.27793 13.0907 5.39346C12.8984 5.50899 12.7309 5.66125 12.5976 5.84156C12.4642 6.02185 12.3676 6.22666 12.3134 6.44427C12.2591 6.66189 12.2483 6.88805 12.2815 7.10986C12.3147 7.33167 12.3912 7.54477 12.5067 7.737C12.7401 8.12521 13.118 8.40483 13.5575 8.51435C13.997 8.62388 14.462 8.55432 14.8503 8.32099C15.2386 8.08766 15.5181 7.70967 15.6277 7.27017C15.7372 6.83067 15.6676 6.36567 15.4343 5.97746Z" fill="url(#paint5_linear_376_10504)"/>
<path d="M2.55231 14.9171C1.81391 13.4595 1.96488 11.0343 2.17625 10.0214L2.57015 8.65304C2.77603 10.5951 2.8721 12.4343 3.92481 14.0923C4.97751 15.7502 7.98053 16.888 11.0604 14.8115C14.1403 12.7349 14.3915 9.24733 13.9125 7.13095C13.5282 5.43729 12.7692 5.70355 12.4562 6.06177C13.2029 4.76477 14.8046 4.8979 15.6583 6.08236C16.3404 7.02938 16.3953 8.76833 16.3377 9.52049C16.1963 11.5284 14.9377 15.9273 11.0371 17.4562C6.1606 19.3681 3.47737 16.7371 2.55231 14.9171Z" fill="url(#paint6_linear_376_10504)"/>
<path d="M17.5802 4.69761C13.8182 2.84474 11.5728 4.94329 10.9209 6.22383C13.003 3.49531 15.7974 4.89525 16.9324 5.9356L17.5802 4.69761Z" fill="url(#paint7_linear_376_10504)"/>
<path d="M15.3963 20.5787C19.0238 18.2441 18.4213 15.2987 17.698 14.0566C18.8646 17.2847 16.1663 18.8947 14.6758 19.2858L15.3963 20.5787Z" fill="url(#paint8_linear_376_10504)"/>
<path d="M2.91113 10.4629C2.95505 14.7766 5.65749 15.8788 7.22351 15.9158C3.87188 15.1843 4.06677 12.0522 4.35088 10.5617L2.91113 10.4629Z" fill="url(#paint9_linear_376_10504)"/>
<path d="M13.7574 5.16211C14.5905 5.8813 15.7393 7.96612 14.7236 11.6485C13.358 16.5922 8.95642 17.2881 6.74121 17.004L6.84277 15.8703C8.08763 16.0707 9.56443 15.8195 11.0604 14.8107C14.1403 12.7341 14.3915 9.24664 13.9125 7.13025C13.5282 5.43659 12.7692 5.71385 12.4563 6.07207C12.809 5.43386 13.2633 5.23211 13.7574 5.16211Z" fill="url(#paint10_linear_376_10504)"/>
<path d="M17.9107 14.5585C17.4551 13.3726 16.4861 12.2115 14.8391 11.4264C11.4861 9.83021 8.35266 11.3852 6.77429 12.8744C5.51159 14.0657 6.11961 14.579 6.58763 14.6669C6.32239 14.6744 6.05889 14.6217 5.8169 14.5129C5.57492 14.404 5.36073 14.2418 5.19043 14.0383C5.24396 13.0858 6.15118 11.2603 9.57419 10.0512C14.2324 8.40417 17.8133 11.2974 18.8605 13.82L17.9107 14.5585Z" fill="url(#paint11_linear_376_10504)"/>
<path d="M11.5614 5.34337C10.6432 6.30961 10.0243 7.79053 10.1272 9.73397C10.3207 13.4424 13.1824 15.4559 15.2425 16.1339C16.8908 16.6774 17.0583 15.9363 16.9128 15.4833C17.2175 16.0323 17.1914 16.5484 17.0034 17.0054C15.6817 17.3788 13.0273 17.1592 10.4758 13.8514C7.17219 9.56927 9.72642 6.00079 10.5856 4.80123L10.7379 4.58301L11.5614 5.34337Z" fill="url(#paint12_linear_376_10504)"/>
<path fill-rule="evenodd" clip-rule="evenodd" d="M15.054 9.99631C17.5629 10.9365 18.849 13.3617 19.1811 14.4597L18.9547 14.5283C18.6349 13.4687 17.3859 11.1218 14.9717 10.2159C12.1787 9.16874 8.02 9.94278 5.824 12.7166C5.69846 12.8935 5.59434 13.0848 5.51382 13.2862C5.41775 13.525 5.35736 13.7611 5.36971 13.9216L5.13501 13.9395C5.11854 13.7226 5.19677 13.4454 5.29559 13.1983C5.39716 12.9499 5.52892 12.7111 5.63872 12.5711C7.90471 9.70809 12.1773 8.91757 15.054 9.99631Z" fill="url(#paint13_linear_376_10504)"/>
<path fill-rule="evenodd" clip-rule="evenodd" d="M8.76677 10.2265C8.39757 7.57079 9.91829 5.28557 10.7239 4.47168L10.8914 4.63639C10.1132 5.42283 8.64461 7.6394 8.99872 10.1936C9.40909 13.1472 12.0717 16.4357 15.5565 17.0437C15.7034 17.0698 15.9586 17.0712 16.2194 17.041C16.4829 17.0094 16.7272 16.9476 16.8631 16.8612L16.9894 17.0588C16.8068 17.1768 16.5172 17.2427 16.2482 17.2743C16.005 17.3071 15.7585 17.3071 15.5153 17.2743C11.9194 16.6484 9.18812 13.2694 8.76677 10.2265Z" fill="url(#paint14_linear_376_10504)"/>
<path fill-rule="evenodd" clip-rule="evenodd" d="M12.1827 15.7231C10.0965 17.4058 7.3543 17.2809 6.24121 17.0091L6.29611 16.7799C7.37077 17.0421 10.0279 17.1587 12.0345 15.5405C14.3554 13.6685 15.8034 9.69234 14.5297 6.39147C14.4379 6.18935 14.3193 6.00054 14.177 5.83012C14.0095 5.62287 13.827 5.44582 13.6815 5.37308L13.7858 5.16309C13.978 5.25916 14.1893 5.46915 14.3623 5.68326C14.5338 5.89874 14.6848 6.13756 14.7493 6.30775C16.0642 9.7143 14.5736 13.7947 12.1827 15.7231Z" fill="url(#paint15_linear_376_10504)"/>
<defs>
<linearGradient id="paint0_linear_376_10504" x1="19.5034" y1="5.73867" x2="5.12242" y2="19.3662" gradientUnits="userSpaceOnUse">
<stop stop-color="#0AE2FF"/>
<stop offset="0.189" stop-color="#047DA5"/>
<stop offset="0.278" stop-color="#0279C2"/>
<stop offset="0.42" stop-color="#018AF6"/>
<stop offset="0.553" stop-color="#0076ED"/>
<stop offset="0.744" stop-color="#4350D3"/>
<stop offset="0.873" stop-color="#910659"/>
<stop offset="1" stop-color="#CB006D"/>
</linearGradient>
<linearGradient id="paint1_linear_376_10504" x1="11.9997" y1="2.00024" x2="11.9997" y2="22.0002" gradientUnits="userSpaceOnUse">
<stop stop-color="#016FD8"/>
<stop offset="1" stop-color="#003A72"/>
</linearGradient>
<linearGradient id="paint2_linear_376_10504" x1="20.6236" y1="5.38254" x2="15.4109" y2="23.0094" gradientUnits="userSpaceOnUse">
<stop stop-color="#09DEFC"/>
<stop offset="0.269" stop-color="#028DF7"/>
<stop offset="0.483" stop-color="#0056AF"/>
<stop offset="0.795" stop-color="#3AA7F7"/>
<stop offset="1" stop-color="#086EE8"/>
</linearGradient>
<linearGradient id="paint3_linear_376_10504" x1="11.9994" y1="2.00048" x2="11.9994" y2="22.0005" gradientUnits="userSpaceOnUse">
<stop stop-color="#344ABE"/>
<stop offset="1" stop-color="#392470"/>
</linearGradient>
<linearGradient id="paint4_linear_376_10504" x1="15.2131" y1="21.5027" x2="0.254233" y2="9.46451" gradientUnits="userSpaceOnUse">
<stop stop-color="#3458D8"/>
<stop offset="0.131" stop-color="#0187F5"/>
<stop offset="0.463" stop-color="#0271C2"/>
<stop offset="0.81" stop-color="#01BCF8"/>
<stop offset="1" stop-color="#534BCF"/>
</linearGradient>
<linearGradient id="paint5_linear_376_10504" x1="2.67693" y1="6.39882" x2="19.9525" y2="16.7776" gradientUnits="userSpaceOnUse">
<stop stop-color="#027ED5"/>
<stop offset="1" stop-color="#02517B"/>
</linearGradient>
<linearGradient id="paint6_linear_376_10504" x1="3.31405" y1="17.7692" x2="23.0519" y2="7.17487" gradientUnits="userSpaceOnUse">
<stop stop-color="#BD1493"/>
<stop offset="0.528" stop-color="#005AB9"/>
<stop offset="0.76" stop-color="#03DEFE"/>
<stop offset="1" stop-color="#06C1FD"/>
</linearGradient>
<linearGradient id="paint7_linear_376_10504" x1="21.5522" y1="9.49727" x2="8.87314" y2="13.8165" gradientUnits="userSpaceOnUse">
<stop stop-color="#08CDED"/>
<stop offset="0.33" stop-color="#06ACCF"/>
<stop offset="1" stop-color="#03618E"/>
</linearGradient>
<linearGradient id="paint8_linear_376_10504" x1="4.8899" y1="18.8082" x2="11.11" y2="5.36325" gradientUnits="userSpaceOnUse">
<stop stop-color="#2660DE"/>
<stop offset="1" stop-color="#004988"/>
</linearGradient>
<linearGradient id="paint9_linear_376_10504" x1="2.47468" y1="4.73549" x2="10.2595" y2="7.28284" gradientUnits="userSpaceOnUse">
<stop stop-color="#4C46C3"/>
<stop offset="0.244" stop-color="#4250D3"/>
<stop offset="0.585" stop-color="#3B54D6"/>
<stop offset="1" stop-color="#4F1964"/>
</linearGradient>
<linearGradient id="paint10_linear_376_10504" x1="14.8938" y1="2.01223" x2="8.68741" y2="22.5571" gradientUnits="userSpaceOnUse">
<stop stop-color="#05B2FC"/>
<stop offset="1" stop-color="#7E2B9F"/>
</linearGradient>
<linearGradient id="paint11_linear_376_10504" x1="2.71857" y1="18.8022" x2="21.3255" y2="18.89" gradientUnits="userSpaceOnUse">
<stop stop-color="#6340C6"/>
<stop offset="0.179" stop-color="#1F61E0"/>
<stop offset="1" stop-color="#0184EF"/>
</linearGradient>
<linearGradient id="paint12_linear_376_10504" x1="7.98883" y1="2.69857" x2="13.612" y2="23.0115" gradientUnits="userSpaceOnUse">
<stop stop-color="#04A9F0"/>
<stop offset="0.312" stop-color="#0167C3"/>
<stop offset="0.577" stop-color="#066DE9"/>
<stop offset="1" stop-color="#007AEF"/>
</linearGradient>
<linearGradient id="paint13_linear_376_10504" x1="19.4446" y1="9.95651" x2="1.53496" y2="10.8843" gradientUnits="userSpaceOnUse">
<stop stop-color="#03B0FB"/>
<stop offset="0.424" stop-color="#02DFFC"/>
<stop offset="1" stop-color="#AF75F4"/>
</linearGradient>
<linearGradient id="paint14_linear_376_10504" x1="12.1088" y1="2.12883" x2="12.1088" y2="21.8145" gradientUnits="userSpaceOnUse">
<stop stop-color="#03AFFA"/>
<stop offset="1" stop-color="#00C2F9"/>
</linearGradient>
<linearGradient id="paint15_linear_376_10504" x1="7.519" y1="16.876" x2="16.0175" y2="8.60256" gradientUnits="userSpaceOnUse">
<stop stop-color="#BB46D6"/>
<stop offset="0.672" stop-color="#02E8FD"/>
<stop offset="1" stop-color="#08DDFE"/>
</linearGradient>
</defs>
</svg>

<svg xmlns="http://www.w3.org/2000/svg" width="24" height="24" fill="none" viewBox="0 0 24 24">
    <path fill="url(#astar__a)" fill-rule="evenodd" d="M12 22a10 10 0 1 0 0-20.001A10 10 0 0 0 12 22m0-2.255a7.745 7.745 0 1 0 0-15.49 7.745 7.745 0 0 0 0 15.49" clip-rule="evenodd"/>
    <path fill="url(#astar__b)" d="M15.431 18.004a1.694 1.694 0 1 0 0-3.388 1.694 1.694 0 0 0 0 3.387"/>
    <path fill="url(#astar__c)" d="M14.419 2.388c1.629.116 3.554 1.55 4.315 2.255l.969 1.043c-1.77-.825-3.322-1.746-5.284-1.698-1.963.048-4.487 2.037-4.292 5.747.193 3.708 3.055 5.722 5.115 6.4 1.648.543 1.816-.204 1.67-.656.665 1.293-.215 2.572-1.67 2.692-1.164.096-2.683-.752-3.297-1.188-1.65-1.156-4.772-4.5-4.073-8.63.873-5.165 4.51-6.11 6.547-5.965"/>
    <path fill="url(#astar__d)" d="M5.007 12.149a1.708 1.708 0 1 0 2.974 1.678 1.708 1.708 0 0 0-2.974-1.678"/>
    <path fill="url(#astar__e)" d="M19.252 18.699c-.878 1.378-3.063 2.443-4.043 2.776l-1.378.356c1.567-1.164 3.121-2.144 4.015-3.894s.347-4.914-3.008-6.511-6.486-.041-8.064 1.448c-1.263 1.191-.673 1.699-.206 1.787-1.428 0-2.172-1.42-1.586-2.758.47-1.069 1.94-2 2.616-2.333 1.803-.899 6.23-2.05 9.53.531 4.124 3.228 3.222 6.876 2.124 8.598"/>
    <path fill="url(#astar__f)" d="M15.434 5.977a1.708 1.708 0 1 0-2.927 1.76 1.708 1.708 0 0 0 2.927-1.76"/>
    <path fill="url(#astar__g)" d="M2.552 14.917c-.738-1.457-.587-3.883-.376-4.896l.394-1.368c.206 1.942.302 3.781 1.355 5.44 1.053 1.657 4.056 2.795 7.135.719 3.08-2.077 3.332-5.565 2.852-7.681-.384-1.694-1.143-1.427-1.456-1.07.747-1.296 2.349-1.163 3.202.021.682.947.737 2.686.68 3.438-.142 2.008-1.4 6.407-5.3 7.936-4.877 1.912-7.56-.719-8.486-2.539"/>
    <path fill="url(#astar__h)" d="M17.58 4.698c-3.762-1.853-6.007.245-6.66 1.526 2.083-2.729 4.877-1.329 6.012-.288z"/>
    <path fill="url(#astar__i)" d="M15.396 20.579c3.628-2.335 3.025-5.28 2.302-6.522 1.167 3.228-1.532 4.838-3.022 5.229z"/>
    <path fill="url(#astar__j)" d="M2.911 10.463c.044 4.314 2.746 5.416 4.313 5.453-3.352-.732-3.157-3.864-2.873-5.354z"/>
    <path fill="url(#astar__k)" d="M13.757 5.162c.834.72 1.982 2.804.967 6.487-1.366 4.943-5.768 5.64-7.983 5.355l.102-1.134c1.245.2 2.721-.05 4.217-1.06 3.08-2.076 3.332-5.563 2.852-7.68-.384-1.693-1.143-1.416-1.456-1.058.353-.638.807-.84 1.301-.91"/>
    <path fill="url(#astar__l)" d="M17.91 14.559c-.455-1.186-1.424-2.347-3.07-3.133-3.354-1.596-6.487-.04-8.066 1.448-1.262 1.192-.654 1.705-.186 1.793a1.76 1.76 0 0 1-1.398-.629c.054-.952.961-2.778 4.384-3.987 4.658-1.647 8.24 1.246 9.286 3.769z"/>
    <path fill="url(#astar__m)" d="M11.561 5.343c-.918.967-1.537 2.448-1.434 4.391.194 3.708 3.055 5.722 5.115 6.4 1.649.543 1.816-.198 1.67-.65a1.68 1.68 0 0 1 .091 1.521c-1.321.374-3.976.154-6.527-3.154-3.304-4.282-.75-7.85.11-9.05l.152-.218z"/>
    <path fill="url(#astar__n)" fill-rule="evenodd" d="M15.054 9.996c2.509.94 3.795 3.366 4.127 4.464l-.226.068c-.32-1.06-1.57-3.406-3.983-4.312-2.793-1.047-6.952-.273-9.148 2.5q-.19.268-.31.57c-.096.239-.157.475-.144.636l-.235.018c-.016-.217.062-.495.16-.742a3 3 0 0 1 .344-.627c2.266-2.863 6.538-3.653 9.415-2.575" clip-rule="evenodd"/>
    <path fill="url(#astar__o)" fill-rule="evenodd" d="M8.767 10.227c-.37-2.656 1.151-4.941 1.957-5.755l.167.164C10.113 5.423 8.645 7.64 9 10.194c.41 2.953 3.073 6.242 6.557 6.85.147.026.403.027.663-.003.264-.032.508-.093.644-.18l.126.198c-.182.118-.472.184-.74.215q-.367.05-.734 0c-3.596-.626-6.327-4.005-6.748-7.048" clip-rule="evenodd"/>
    <path fill="url(#astar__p)" fill-rule="evenodd" d="M12.183 15.723c-2.086 1.683-4.829 1.558-5.942 1.286l.055-.23c1.075.263 3.732.38 5.738-1.239 2.321-1.871 3.77-5.848 2.496-9.149a2.5 2.5 0 0 0-.353-.56c-.168-.208-.35-.385-.495-.458l.104-.21c.192.096.403.306.576.52.172.216.323.455.387.625 1.315 3.406-.175 7.487-2.566 9.415" clip-rule="evenodd"/>
    <defs>
        <linearGradient id="astar__a" x1="19.503" x2="5.122" y1="5.739" y2="19.366" gradientUnits="userSpaceOnUse">
            <stop stop-color="#0AE2FF"/>
            <stop offset=".189" stop-color="#047DA5"/>
            <stop offset=".278" stop-color="#0279C2"/>
            <stop offset=".42" stop-color="#018AF6"/>
            <stop offset=".553" stop-color="#0076ED"/>
            <stop offset=".744" stop-color="#4350D3"/>
            <stop offset=".873" stop-color="#910659"/>
            <stop offset="1" stop-color="#CB006D"/>
        </linearGradient>
        <linearGradient id="astar__b" x1="12" x2="12" y1="2" y2="22" gradientUnits="userSpaceOnUse">
            <stop stop-color="#016FD8"/>
            <stop offset="1" stop-color="#003A72"/>
        </linearGradient>
        <linearGradient id="astar__c" x1="20.624" x2="15.411" y1="5.383" y2="23.009" gradientUnits="userSpaceOnUse">
            <stop stop-color="#09DEFC"/>
            <stop offset=".269" stop-color="#028DF7"/>
            <stop offset=".483" stop-color="#0056AF"/>
            <stop offset=".795" stop-color="#3AA7F7"/>
            <stop offset="1" stop-color="#086EE8"/>
        </linearGradient>
        <linearGradient id="astar__d" x1="11.999" x2="11.999" y1="2" y2="22" gradientUnits="userSpaceOnUse">
            <stop stop-color="#344ABE"/>
            <stop offset="1" stop-color="#392470"/>
        </linearGradient>
        <linearGradient id="astar__e" x1="15.213" x2=".254" y1="21.503" y2="9.465" gradientUnits="userSpaceOnUse">
            <stop stop-color="#3458D8"/>
            <stop offset=".131" stop-color="#0187F5"/>
            <stop offset=".463" stop-color="#0271C2"/>
            <stop offset=".81" stop-color="#01BCF8"/>
            <stop offset="1" stop-color="#534BCF"/>
        </linearGradient>
        <linearGradient id="astar__f" x1="2.677" x2="19.953" y1="6.399" y2="16.778" gradientUnits="userSpaceOnUse">
            <stop stop-color="#027ED5"/>
            <stop offset="1" stop-color="#02517B"/>
        </linearGradient>
        <linearGradient id="astar__g" x1="3.314" x2="23.052" y1="17.769" y2="7.175" gradientUnits="userSpaceOnUse">
            <stop stop-color="#BD1493"/>
            <stop offset=".528" stop-color="#005AB9"/>
            <stop offset=".76" stop-color="#03DEFE"/>
            <stop offset="1" stop-color="#06C1FD"/>
        </linearGradient>
        <linearGradient id="astar__h" x1="21.552" x2="8.873" y1="9.497" y2="13.816" gradientUnits="userSpaceOnUse">
            <stop stop-color="#08CDED"/>
            <stop offset=".33" stop-color="#06ACCF"/>
            <stop offset="1" stop-color="#03618E"/>
        </linearGradient>
        <linearGradient id="astar__i" x1="4.89" x2="11.11" y1="18.808" y2="5.363" gradientUnits="userSpaceOnUse">
            <stop stop-color="#2660DE"/>
            <stop offset="1" stop-color="#004988"/>
        </linearGradient>
        <linearGradient id="astar__j" x1="2.475" x2="10.259" y1="4.735" y2="7.283" gradientUnits="userSpaceOnUse">
            <stop stop-color="#4C46C3"/>
            <stop offset=".244" stop-color="#4250D3"/>
            <stop offset=".585" stop-color="#3B54D6"/>
            <stop offset="1" stop-color="#4F1964"/>
        </linearGradient>
        <linearGradient id="astar__k" x1="14.894" x2="8.687" y1="2.012" y2="22.557" gradientUnits="userSpaceOnUse">
            <stop stop-color="#05B2FC"/>
            <stop offset="1" stop-color="#7E2B9F"/>
        </linearGradient>
        <linearGradient id="astar__l" x1="2.719" x2="21.326" y1="18.802" y2="18.89" gradientUnits="userSpaceOnUse">
            <stop stop-color="#6340C6"/>
            <stop offset=".179" stop-color="#1F61E0"/>
            <stop offset="1" stop-color="#0184EF"/>
        </linearGradient>
        <linearGradient id="astar__m" x1="7.989" x2="13.612" y1="2.699" y2="23.012" gradientUnits="userSpaceOnUse">
            <stop stop-color="#04A9F0"/>
            <stop offset=".312" stop-color="#0167C3"/>
            <stop offset=".577" stop-color="#066DE9"/>
            <stop offset="1" stop-color="#007AEF"/>
        </linearGradient>
        <linearGradient id="astar__n" x1="19.445" x2="1.535" y1="9.957" y2="10.884" gradientUnits="userSpaceOnUse">
            <stop stop-color="#03B0FB"/>
            <stop offset=".424" stop-color="#02DFFC"/>
            <stop offset="1" stop-color="#AF75F4"/>
        </linearGradient>
        <linearGradient id="astar__o" x1="12.109" x2="12.109" y1="2.129" y2="21.814" gradientUnits="userSpaceOnUse">
            <stop stop-color="#03AFFA"/>
            <stop offset="1" stop-color="#00C2F9"/>
        </linearGradient>
        <linearGradient id="astar__p" x1="7.519" x2="16.017" y1="16.876" y2="8.603" gradientUnits="userSpaceOnUse">
            <stop stop-color="#BB46D6"/>
            <stop offset=".672" stop-color="#02E8FD"/>
            <stop offset="1" stop-color="#08DDFE"/>
        </linearGradient>
    </defs>
</svg>
